images/advantages-icon-8.svg

<svg width="27" height="28" viewBox="0 0 27 28" fill="none" xmlns="http://www.w3.org/2000/svg">
<path d="M17.2746 18.5743C17.2746 23.2873 13.4543 27.1077 8.74137 27.1077C4.02832 27.1077 0.208008 23.2873 0.208008 18.5743C0.208008 13.8613 4.02832 10.041 8.74137 10.041C8.96449 10.041 9.2008 10.0541 9.42401 10.0672C13.5857 10.3955 16.9202 13.73 17.2485 17.8917C17.2615 18.1149 17.2746 18.3512 17.2746 18.5743Z" fill="white"/>
<path d="M26.4636 9.38493C26.4636 13.6648 23.3129 17.1962 19.2169 17.8132V17.7345C18.8099 12.6408 14.6745 8.50537 9.54134 8.09833H9.50195C10.119 4.00233 13.6505 0.851562 17.9303 0.851562C22.6433 0.851562 26.4636 4.67187 26.4636 9.38493Z" fill="white"/>
<path d="M4.92107 0.851562H1.5208C0.798777 0.851562 0.208008 1.44233 0.208008 2.16445V5.56462C0.208008 6.73307 1.62585 7.32383 2.45293 6.49676L5.8531 3.09649C6.66708 2.26941 6.08941 0.851562 4.92107 0.851562Z" fill="white"/>
<path d="M21.7508 27.1073H25.151C25.873 27.1073 26.4637 26.5165 26.4637 25.7945V22.3942C26.4637 21.2259 25.0459 20.6351 24.2188 21.4622L20.8186 24.8623C20.0047 25.6894 20.5823 27.1073 21.7508 27.1073Z" fill="white"/>
</svg>

<svg width="27" height="28" fill="none" xmlns="http://www.w3.org/2000/svg"><path d="M17.275 18.574a8.533 8.533 0 11-17.067 0 8.533 8.533 0 1117.067 0z" fill="#fff"/><path d="M26.464 9.385c0 4.28-3.151 7.811-7.247 8.428v-.078c-.407-5.094-4.542-9.23-9.676-9.637h-.039C10.119 4.002 13.65.852 17.93.852a8.533 8.533 0 018.534 8.533zM4.921.852h-3.4c-.722 0-1.313.59-1.313 1.312v3.4c0 1.17 1.418 1.76 2.245.933l3.4-3.4c.814-.828.236-2.245-.932-2.245zM21.75 27.107h3.401c.722 0 1.313-.59 1.313-1.313v-3.4c0-1.168-1.418-1.759-2.245-.932l-3.4 3.4c-.814.827-.237 2.245.932 2.245z" fill="#fff"/></svg>
